Flat-Remix-Dark/apps/scalable/fontforge.svg

<svg xmlns="http://www.w3.org/2000/svg" xmlns:xlink="http://www.w3.org/1999/xlink" width="384pt" height="384pt" version="1.1" viewBox="0 0 384 384">
 <defs>
  <filter id="alpha" width="100%" height="100%" x="0%" y="0%" filterUnits="objectBoundingBox">
   <feColorMatrix in="SourceGraphic" type="matrix" values="0 0 0 0 1 0 0 0 0 1 0 0 0 0 1 0 0 0 1 0"/>
  </filter>
  <mask id="mask0">
   <g filter="url(#alpha)">
    <rect width="384" height="384" x="0" y="0" style="fill:rgb(0%,0%,0%);fill-opacity:0.2"/>
   </g>
  </mask>
  <clipPath id="clip1">
   <rect width="384" height="384" x="0" y="0"/>
  </clipPath>
  <g id="surface5" clip-path="url(#clip1)">
   <path style="fill:rgb(0%,0%,0%)" d="M 192 30 C 98.929688 30 24 104.929688 24 198 C 24 291.070312 98.929688 366 192 366 C 285.070312 366 360 291.070312 360 198 C 360 104.929688 285.070312 30 192 30 Z M 192 30"/>
  </g>
  <mask id="mask1">
   <g filter="url(#alpha)">
    <rect width="384" height="384" x="0" y="0" style="fill:rgb(0%,0%,0%);fill-opacity:0.2"/>
   </g>
  </mask>
  <clipPath id="clip2">
   <rect width="384" height="384" x="0" y="0"/>
  </clipPath>
  <g id="surface8" clip-path="url(#clip2)">
   <path style="fill:rgb(100%,100%,100%)" d="M 192 24 C 98.929688 24 24 98.929688 24 192 C 24 192.679688 24.066406 193.34375 24.105469 194.015625 C 26.214844 102.804688 100.265625 30 192 30 C 283.734375 30 357.785156 102.804688 359.894531 194.015625 C 359.933594 193.34375 360 192.679688 360 192 C 360 98.929688 285.070312 24 192 24 Z M 192 24"/>
  </g>
 </defs>
 <g>
  <use mask="url(#mask0)" xlink:href="#surface5"/>
  <path style="fill:rgb(80%,80%,80%)" d="M 192 24 C 98.929688 24 24 98.929688 24 192 C 24 285.070312 98.929688 360 192 360 C 285.070312 360 360 285.070312 360 192 C 360 98.929688 285.070312 24 192 24 Z M 192 24"/>
  <path style="fill:rgb(25.098039%,25.098039%,25.098039%)" d="M 202.429688 108 C 180.234375 108 166.742188 132.828125 158.25 154.898438 L 147.585938 187.3125 L 134.015625 230.765625 C 129.804688 242.992188 126.835938 262.429688 114 264 C 108.386719 264.6875 108.628906 252 102 252 C 95.371094 252 90 257.371094 90 264 C 90 270.628906 95.371094 276 102 276 L 109.570312 276 C 135.238281 276 149.875 243.710938 160.875 208.171875 L 167.039062 188.109375 L 176.882812 156.445312 C 181.964844 143.355469 184.078125 121.820312 198 120 C 203.609375 119.265625 203.371094 132 210 132 C 216.628906 132 222 126.628906 222 120 C 222 113.371094 216.628906 108 210 108 Z M 202.429688 108"/>
  <path style="fill:rgb(25.098039%,25.098039%,25.098039%)" d="M 114 168 L 210 168 L 210 180 L 114 180 Z M 114 168"/>
  <path style="fill:rgb(25.098039%,25.098039%,25.098039%)" d="M 274.429688 108 C 252.234375 108 238.742188 132.828125 230.25 154.898438 L 219.585938 187.3125 L 206.015625 230.765625 C 201.804688 242.992188 198.835938 262.429688 186 264 C 180.386719 264.6875 180.628906 252 174 252 C 167.371094 252 162 257.371094 162 264 C 162 270.628906 167.371094 276 174 276 L 181.570312 276 C 207.238281 276 221.875 243.710938 232.875 208.171875 L 239.039062 188.109375 L 248.882812 156.445312 C 253.964844 143.355469 256.078125 121.820312 270 120 C 275.609375 119.265625 275.371094 132 282 132 C 288.628906 132 294 126.628906 294 120 C 294 113.371094 288.628906 108 282 108 Z M 274.429688 108"/>
  <path style="fill:rgb(25.098039%,25.098039%,25.098039%)" d="M 186 168 L 282 168 L 282 180 L 186 180 Z M 186 168"/>
  <use mask="url(#mask1)" xlink:href="#surface8"/>
 </g>
</svg>

<svg xmlns="http://www.w3.org/2000/svg" width="384pt" height="384pt" version="1.1" viewBox="0 0 384 384">
 <path style="fill:#ffffff" d="M 192,24 C 98.929688,24 24,98.929688 24,192 24,285.07031 98.929688,360 192,360 285.07031,360 360,285.07031 360,192 360,98.929688 285.07031,24 192,24 Z m 0,0"/>
 <path style="fill:#4a4a4a" d="m 202.42969,108 c -22.19532,0 -35.6875,24.82812 -44.17969,46.89844 l -10.66406,32.41406 -13.57032,43.45312 C 129.80469,242.99219 126.83594,262.42969 114,264 c -5.61328,0.6875 -5.37109,-12 -12,-12 -6.628906,0 -12,5.37109 -12,12 0,6.62891 5.371094,12 12,12 h 7.57031 c 25.66797,0 40.30469,-32.28906 51.30469,-67.82813 l 6.16406,-20.0625 9.84375,-31.66406 C 181.96484,143.35547 184.07812,121.82031 198,120 c 5.60937,-0.73437 5.37109,12 12,12 6.62891,0 12,-5.37109 12,-12 0,-6.62891 -5.37109,-12 -12,-12 z m 0,0"/>
 <path style="fill:#4a4a4a" d="m 114,168 h 96 v 12 h -96 z m 0,0"/>
 <path style="fill:#4a4a4a" d="m 274.42969,108 c -22.19532,0 -35.6875,24.82812 -44.17969,46.89844 l -10.66406,32.41406 -13.57032,43.45312 C 201.80469,242.99219 198.83594,262.42969 186,264 c -5.61328,0.6875 -5.37109,-12 -12,-12 -6.62891,0 -12,5.37109 -12,12 0,6.62891 5.37109,12 12,12 h 7.57031 c 25.66797,0 40.30469,-32.28906 51.30469,-67.82813 l 6.16406,-20.0625 9.84375,-31.66406 C 253.96484,143.35547 256.07812,121.82031 270,120 c 5.60937,-0.73437 5.37109,12 12,12 6.62891,0 12,-5.37109 12,-12 0,-6.62891 -5.37109,-12 -12,-12 z m 0,0"/>
 <path style="fill:#4a4a4a" d="m 186,168 h 96 v 12 h -96 z m 0,0"/>
 <path d="M 32.0625 251 C 32.026417 252.66289 32 254.32814 32 256 C 32 380.09376 131.90627 480 256 480 C 380.09376 480 480 380.09376 480 256 C 480 254.32814 479.97358 252.66289 479.9375 251 C 477.29534 372.76539 378.4219 470 256 470 C 133.57811 470 34.704659 372.76539 32.0625 251 z" transform="scale(0.75)" style="opacity:0.3"/>
 <path d="m 24.046869,195.75 c -0.02706,-1.24717 -0.04687,-2.49611 -0.04687,-3.75 0,-93.07032 74.929703,-168 168.000001,-168 93.07031,0 168,74.92968 168,168 0,1.25389 -0.0198,2.50283 -0.0469,3.75 C 357.97147,104.42596 283.81639,31.5 191.99997,31.5 100.18356,31.5 26.028473,104.42596 24.046854,195.75 Z" style="opacity:0.05"/>
</svg>
